X: 13
M: 2/4
L: 1/8
K: G
V: 1
|:\
g2af | g2af | gd{d}c2 | B/A/G/F/ GD |\
EG ce | df gd | dc cB | A4 :|
|:\
e2d/c/B/A/ | df gc | {c}BA/G/ AG/F/ | G2G2 :|
V: 2 clef=bass middle=d
|:\
g2d2 | G2d2 | gbaf | g3G |
c2c'2 | b2g2 | zfgG | d4 :||: dd' dd' |
dd' dd' | dd' dd' | dd' g2 | c2 c'2 |
ba bf | g2d2 | g2G2 :|


